src/components/00-materials/images-raw/Motorcycle.svg

<svg width="96" height="96" viewBox="0 0 96 96" fill="none" xmlns="http://www.w3.org/2000/svg">
<path d="M21 75C28.1797 75 34 69.1797 34 62C34 54.8203 28.1797 49 21 49C13.8203 49 8 54.8203 8 62C8 69.1797 13.8203 75 21 75Z" stroke="#00008F" stroke-width="2" stroke-linecap="round" stroke-linejoin="round"/>
<path d="M21 69C24.866 69 28 65.866 28 62C28 58.134 24.866 55 21 55C17.134 55 14 58.134 14 62C14 65.866 17.134 69 21 69Z" stroke="#00008F" stroke-width="2" stroke-linecap="round" stroke-linejoin="round"/>
<path d="M75 75C82.1797 75 88 69.1797 88 62C88 54.8203 82.1797 49 75 49C67.8203 49 62 54.8203 62 62C62 69.1797 67.8203 75 75 75Z" stroke="#00008F" stroke-width="2" stroke-linecap="round" stroke-linejoin="round"/>
<path d="M82.28 45.53C79.9864 44.5187 77.5067 43.9975 75 44C73.0044 44.0023 71.0234 44.3404 69.14 45" stroke="#00008F" stroke-width="2" stroke-linecap="round" stroke-linejoin="round"/>
<path d="M75 69C78.866 69 82 65.866 82 62C82 58.134 78.866 55 75 55C71.134 55 68 58.134 68 62C68 65.866 71.134 69 75 69Z" stroke="#00008F" stroke-width="2" stroke-linecap="round" stroke-linejoin="round"/>
<path d="M69 45L75 62M10 36V40C10 40 17.37 41.27 21 42C31 44 39 52 39 62V65H57V62C56.9671 58.2664 58.1078 54.6169 60.2609 51.5665C62.4141 48.5162 65.471 46.2193 69 45L64 31C52 31 47 41 42 41C37 41 31 33 25 33H13C12.2044 33 11.4413 33.3161 10.8787 33.8787C10.3161 34.4413 10 35.2044 10 36Z" stroke="#00008F" stroke-width="2" stroke-linecap="round" stroke-linejoin="round"/>
<path d="M30.75 46.4L21 62H38.92M73 44V38C73 37.2044 72.6839 36.4413 72.1213 35.8787C71.5587 35.3161 70.7956 35 70 35H65.42M64 31L62 25H56M50 48H63.68M52 53H59.38" stroke="#00008F" stroke-width="2" stroke-linecap="round" stroke-linejoin="round"/>
</svg>

<svg width="96" height="96" viewBox="0 0 96 96" fill="none" xmlns="http://www.w3.org/2000/svg"><path d="M21 75c7.18 0 13-5.82 13-13s-5.82-13-13-13S8 54.82 8 62s5.82 13 13 13z" stroke="#00008F" stroke-width="2" stroke-linecap="round" stroke-linejoin="round"/><path d="M21 69a7 7 0 100-14 7 7 0 000 14zM75 75c7.18 0 13-5.82 13-13s-5.82-13-13-13-13 5.82-13 13 5.82 13 13 13zM82.28 45.53A18 18 0 0075 44c-1.996.002-3.977.34-5.86 1" stroke="#00008F" stroke-width="2" stroke-linecap="round" stroke-linejoin="round"/><path d="M75 69a7 7 0 100-14 7 7 0 000 14zM69 45l6 17M10 36v4s7.37 1.27 11 2c10 2 18 10 18 20v3h18v-3a17.82 17.82 0 0112-17l-5-14c-12 0-17 10-22 10s-11-8-17-8H13a3 3 0 00-3 3z" stroke="#00008F" stroke-width="2" stroke-linecap="round" stroke-linejoin="round"/><path d="M30.75 46.4L21 62h17.92M73 44v-6a3 3 0 00-3-3h-4.58M64 31l-2-6h-6m-6 23h13.68M52 53h7.38" stroke="#00008F" stroke-width="2" stroke-linecap="round" stroke-linejoin="round"/></svg>
